!!!SOCIAL_FUNCTION:	songs connected with ceremonies
!!!PDT:	1929
!!!OTL: No_103_A_Flaming_Light_in_the_East.krn
!!!REG: Southwest
!!!LANG: Non-Tone
!!!LING_GROUP: Uto-Aztecan
**kern
*staff1
*clefF4
*k[b-e-]
*M2/4
8B-\L
8B-\J
=1
4c\
4B-\
=2
4G\
4F\
=3||
*M3/4
2G\
8B-\L
8G\J
=4||
*M2/4
4B-\
4G\
=5
4F\
8G\L
8E-\J
=6||
*M3/4
2E-\
8F\L
8E-\J
=7||
*M2/4
4E-\
4E-\
=8
8C/L
8BB-/J
4r
=9||
*M3/4
2.E-\
=10||
*M5/8
4E-\
8C/L
8BB-/
8E-/J
=11||
*M2/4
4E-\
8C/L
8BB-/J
=12
2F\
=13||
*M3/8
8E-\L
8C\
8F\J
=14||
*M2/4
4F\
4F\
=15
4r
8c\L
8B-\J
=16||
*M3/4
4c\
4B-\
4G\
=17
2F\
8G\L
8E-\J
=18||
*M2/4
4F\
4E-\
=19
8C/L
8BB-/J
4r
=20||
*M3/4
2F\
8G\L
8E-\J
=21||
*M2/4
4F\
8E-/L
16C/Jk
16r
=22
[2F\
=23
8F\L]
16E-\Jk
16r
4F\
=24
2F\
==
*-
